svgs/duotone/inbox-in.svg

<svg xmlns="http://www.w3.org/2000/svg" viewBox="0 0 512 512"><!-- Font Awesome Pro 6.0.0-alpha2 by @fontawesome - https://fontawesome.com License - https://fontawesome.com/license (Commercial License) --><defs><style>.fa-secondary{opacity:.4}</style></defs><path d="M480 320H384L352 384H160L128 320H32C14.326 320 0 334.328 0 352V464C0 490.508 21.49 512 48 512H464C490.51 512 512 490.508 512 464V352C512 334.328 497.674 320 480 320Z" class="fa-secondary"/><path d="M374.625 169.375C387.125 181.875 387.125 202.125 374.625 214.625L278.625 310.625C266.125 323.125 245.875 323.125 233.375 310.625L137.375 214.625C124.875 202.125 124.875 181.875 137.375 169.375C143.625 163.125 151.813 160 160 160S176.375 163.125 182.625 169.375L224 210.75V32C224 14.312 238.313 0 256 0S288 14.312 288 32V210.75L329.375 169.375C341.875 156.875 362.125 156.875 374.625 169.375Z" class="fa-primary"/></svg>

<svg xmlns="http://www.w3.org/2000/svg" viewBox="0 0 512 512"><!--! Font Awesome Pro 6.0.0-alpha3 by @fontawesome - https://fontawesome.com License - https://fontawesome.com/license (Commercial License) --><defs><style>.fa-secondary{opacity:.4}</style></defs><path class="fa-primary" d="M374.6 169.4c12.5 12.5 12.5 32.75 0 45.25l-96 96c-12.5 12.5-32.75 12.5-45.25 0l-96-96c-12.5-12.5-12.5-32.75 0-45.25C143.6 163.1 151.8 160 160 160s16.38 3.125 22.62 9.375L224 210.8V32c0-17.69 14.31-32 32-32S288 14.31 288 32v178.8l41.38-41.38C341.9 156.9 362.1 156.9 374.6 169.4z"/><path class="fa-secondary" d="M480 320h-96L352 384H160l-32-64H32c-17.67 0-32 14.33-32 32v112C0 490.5 21.49 512 48 512h416c26.51 0 48-21.49 48-48V352C512 334.3 497.7 320 480 320z"/></svg>
